X: 6
T: The Dairy Maid
R: reel
M: 4/4
L: 1/8
K: Dmaj
|AF F2 AFBF|AFDE FE E2|AF F2 BFAF|EFDE FDD2|
AF F2 AFBF|AFDE FE E2|G3E F2AF|EFDE FD D2||
|d3f a3g|f2ef dBBA|dcdf a2fa|bgeg fddA|
dfaf g2ag|f2eg fBBA|dcdf g2ag|fgeg fddB||


Tune 1946	Setting 15372

